static/img/twc-title.svg

<?xml version="1.0" encoding="UTF-8"?>
<svg version="1.1" viewBox="0 0 660.57 142" xmlns="http://www.w3.org/2000/svg">
 <defs>
  <style>
    .background, .circle {
      fill: #14161A;
    }
    .foreground {
      fill: #FFF;
    }
    .brand {
      fill: #FF3333;
    }
    .text {
      stroke-width:2;
      stroke: #14161A;
    }
    .circle {
      stroke: #FFF;
      stroke-miterlimit: 10;
      stroke-width: 2;
    }
  </style>
 </defs>
 <path class="foreground text" d="m11.75 67v-55.83h-6.82v-6h20.42v6.05h-6.35v55.78z"/>
 <path class="foreground text" d="m31.26 67v-61.88h7.28v26.48h9.91v-26.48h7.28v61.88h-7.28v-29.46h-9.91v29.46z"/>
 <path class="foreground text" d="m65.85 67v-61.88h18.49v6.05h-11.21v21.17h10.62v6h-10.62v22.66h11.35v6z"/>
 <path class="foreground text" d="m89.09 67 9.39-61.88h8.75l10.23 61.88h-6.85l-1.76-11.81h-11.22l-1.63 11.81zm9.35-17.72h9.49l-4.88-32.69h-0.11z"/>
 <path class="foreground text" d="m126.88 67v-55.83h-6.82v-6h20.43v6.05h-6.36v55.78z"/>
 <path class="foreground text" d="m146.39 67v-61.88h13c3.28 0 5.7 0.59 7.27 1.75a8.27 8.27 0 0 1 3.08 5.23 44.88 44.88 0 0 1 0.72 8.81 28.7 28.7 0 0 1-1.18 9.09 6.47 6.47 0 0 1-4.5 4.36 4.77 4.77 0 0 1 2.8 1.44 8.31 8.31 0 0 1 1.74 3.62 36.73 36.73 0 0 1 0.89 6.59c0.18 2.75 0.27 6.22 0.27 10.39v1.72q0 1.13 0 2.46c0 0.89 0.05 1.77 0.09 2.64s0.09 1.63 0.16 2.3a6 6 0 0 0 0.27 1.48h-7.2a5.31 5.31 0 0 1-0.25-1.41c-0.07-0.72-0.13-1.68-0.17-2.88s-0.09-2.62-0.11-4.27 0-3.5 0-5.56v-6.73a37.61 37.61 0 0 0-0.29-5.36 3.58 3.58 0 0 0-1.41-2.57 7.58 7.58 0 0 0-3.53-0.86l-4.33-0.24v29.88zm7.28-35.23h4.64a5.12 5.12 0 0 0 3.08-0.79 4.77 4.77 0 0 0 1.46-3.16 48 48 0 0 0 0.38-7.12v-0.42a36.64 36.64 0 0 0-0.36-6 4 4 0 0 0-1.43-2.73 5.82 5.82 0 0 0-3.2-0.7h-4.57z"/>
 <path class="foreground text" d="m179.41 67v-61.88h18.49v6.05h-11.22v21.17h10.62v6h-10.62v22.66h11.32v6z"/>
 <path class="foreground text" d="m225.36 67-6.65-61.88h12.1l3.41 39.06 3.48-39.06h11.53l3.3 39.06 3.31-39.06h12.23l-6.75 61.88h-14.84l-3.09-29.78-2.95 29.78z"/>
 <path class="foreground text" d="m286.53 67.56q-7.42 0-11.34-4.48t-3.92-13v-29.35q0-7.94 3.88-12t11.38-4.12q7.49 0 11.37 4.12t3.89 12.05v29.34q0 8.48-3.92 13t-11.34 4.44zm0.1-11.39c1.88 0 2.82-1.81 2.82-5.45v-30.2c0-3-0.92-4.57-2.75-4.57q-3.09 0-3.09 4.68v30.16a8.9 8.9 0 0 0 0.7 4.13 2.45 2.45 0 0 0 2.32 1.25z"/>
 <path class="foreground text" d="m306.78 67v-61.88h19c3.17 0 5.56 0.73 7.17 2.17a10.8 10.8 0 0 1 3.26 6 44.42 44.42 0 0 1 0.82 9.13 21.14 21.14 0 0 1-1.28 8.08 7.44 7.44 0 0 1-4.84 4.19 5.53 5.53 0 0 1 4.1 2.9 13 13 0 0 1 1.18 6v23.41h-12.19v-24.22q0-2.72-1.11-3.36a7.42 7.42 0 0 0-3.57-0.65v28.23zm12.58-38.95h3c1.71 0 2.57-1.87 2.57-5.59a12.8 12.8 0 0 0-0.56-4.75 2.14 2.14 0 0 0-2.11-1.12h-2.89z"/>
 <path class="foreground text" d="m341.09 67v-61.88h12.23v24.79l5.77-24.79h12.45l-6.93 28.34 8.39 33.54h-12.86l-6.75-29.95v29.95z"/>
 <path class="foreground text" d="m389.78 67.56q-8.47 0-12.22-4.22t-3.74-13.43v-6h12.24v7.69a7.11 7.11 0 0 0 0.65 3.36 2.33 2.33 0 0 0 2.29 1.21 2.6 2.6 0 0 0 2.34-1 6.14 6.14 0 0 0 0.66-3.17 17.35 17.35 0 0 0-0.56-4.76 10.85 10.85 0 0 0-1.95-3.66 41.87 41.87 0 0 0-3.85-4.06l-5.64-5.32q-6.23-5.87-6.22-13.43 0-7.9 3.67-12.06t10.64-4.15q8.5 0 12.08 4.54t3.56 13.78h-12.54v-4.26a2.61 2.61 0 0 0-0.72-2 3.15 3.15 0 0 0-4.12 0.12 3.26 3.26 0 0 0-0.68 2.13 6.71 6.71 0 0 0 0.7 2.81 12.5 12.5 0 0 0 2.78 3.48l7.14 6.85a41.89 41.89 0 0 1 3.93 4.31 18.7 18.7 0 0 1 2.89 5.27 21.82 21.82 0 0 1 1.09 7.41q0 8.73-3.22 13.66t-11.2 4.9z"/>
 <path class="foreground text" d="m408.31 67v-61.88h12.3v22.12h5.84v-22.12h12.3v61.88h-12.3v-28h-5.84v28z"/>
 <path class="foreground text" d="m459 67.56q-7.41 0-11.33-4.48t-3.92-13v-29.35q0-7.94 3.88-12t11.37-4.17q7.5 0 11.38 4.12t3.88 12.05v29.39q0 8.48-3.92 13t-11.34 4.44zm0.11-11.39c1.87 0 2.81-1.81 2.81-5.45v-30.2c0-3-0.91-4.57-2.74-4.57q-3.09 0-3.09 4.68v30.16a8.9 8.9 0 0 0 0.7 4.13 2.44 2.44 0 0 0 2.32 1.25z"/>
 <path class="foreground text" d="m479.25 67v-61.88h16.35a13.16 13.16 0 0 1 8.14 2.29 12.54 12.54 0 0 1 4.31 6.5 34.66 34.66 0 0 1 1.3 10.09 39.28 39.28 0 0 1-1.09 9.79 11.9 11.9 0 0 1-3.89 6.45c-1.86 1.52-4.5 2.29-7.92 2.29h-5v24.47zm12.17-35.61h0.7c2.3 0 3.7-0.65 4.22-1.94a16 16 0 0 0 0.77-5.69 15.41 15.41 0 0 0-0.75-5.43q-0.76-1.92-3.57-1.92h-1.37z"/>
 <path class="brand text" d="m239.76 136.81a14.46 14.46 0 0 1-10.76-4.19q-4.09-4.19-4.09-11.7v-28.55q0-9 3.57-13.78t11.62-4.78a18.25 18.25 0 0 1 7.82 1.61 12.38 12.38 0 0 1 5.39 4.84 15.19 15.19 0 0 1 2 8.1v10.69h-12.3v-9.14a7 7 0 0 0-0.7-3.75 2.53 2.53 0 0 0-2.18-1 2.3 2.3 0 0 0-2.32 1.25 7.7 7.7 0 0 0-0.6 3.32v31a6.49 6.49 0 0 0 0.75 3.62 2.53 2.53 0 0 0 2.17 1.06 2.31 2.31 0 0 0 2.23-1.3 7.65 7.65 0 0 0 0.65-3.38v-11.13h12.44v11.7q0 8.16-4.11 11.83t-11.58 3.68z"/>
 <path class="brand text" d="m274.25 136.81q-7.41 0-11.34-4.49t-3.91-12.95v-29.37q0-8 3.88-12.06t11.37-4.11q7.5 0 11.38 4.11t3.88 12.06v29.39q0 8.47-3.92 12.95t-11.34 4.47zm0.11-11.39q2.81 0 2.81-5.45v-30.2q0-4.58-2.74-4.57c-2.06 0-3.1 1.56-3.1 4.67v30.13a8.88 8.88 0 0 0 0.71 4.13 2.46 2.46 0 0 0 2.32 1.29z"/>
 <path class="brand text" d="m308.81 136.81q-7.72 0-11.39-4.35t-3.66-12.77v-45.32h12v44.82a25.67 25.67 0 0 0 0.17 3 5.23 5.23 0 0 0 0.81 2.34 2.3 2.3 0 0 0 2 0.92 2.38 2.38 0 0 0 2.08-0.9 5 5 0 0 0 0.79-2.34 28.77 28.77 0 0 0 0.15-3v-44.84h12v45.32q0 8.43-3.66 12.77t-11.29 4.35z"/>
 <path class="brand text" d="m328.6 136.24v-61.87h12.4v51.33h12.73v10.54z"/>
 <path class="brand text" d="m371.92 136.81q-8.48 0-12.22-4.22t-3.7-13.43v-6h12.23v7.74a7.19 7.19 0 0 0 0.65 3.35 2.35 2.35 0 0 0 2.27 1.22 2.6 2.6 0 0 0 2.34-1 6.08 6.08 0 0 0 0.65-3.23 17 17 0 0 0-0.57-4.77 10.55 10.55 0 0 0-1.95-3.65 39.61 39.61 0 0 0-3.85-4.06l-5.55-5.28q-6.22-5.9-6.22-13.48 0-7.91 3.67-12.05t10.63-4.15q8.52 0 12.08 4.53t3.57 13.78h-12.63v-4.24a2.64 2.64 0 0 0-0.72-2 3.16 3.16 0 0 0-4.11 0.12 3.21 3.21 0 0 0-0.69 2.13 6.66 6.66 0 0 0 0.71 2.81 12.43 12.43 0 0 0 2.77 3.48l7.14 6.86a41 41 0 0 1 3.94 4.31 18.93 18.93 0 0 1 2.88 5.27 21.53 21.53 0 0 1 1.09 7.33q0 8.72-3.22 13.66t-11.19 4.97z"/>
 <path class="brand text" d="m390.44 136.24v-61.87h17q6.68 0 10.05 3.71t3.38 10.84v29q0 8.79-3.08 13.57t-10.79 4.75zm12.45-10.93h2.11c2.28 0 3.41-1.1 3.41-3.3v-31.93c0-2.06-0.27-3.39-0.82-4s-1.67-0.89-3.36-0.89h-1.37z"/>
 <path class="brand text" d="m440.72 136.81q-7.43 0-11.34-4.49t-3.92-12.95v-29.37q0-8 3.88-12.06t11.38-4.11q7.48 0 11.37 4.11t3.91 12.06v29.39q0 8.47-3.92 12.95t-11.36 4.47zm0.1-11.39q2.82 0 2.82-5.45v-30.2q0-4.58-2.75-4.57-3.09 0-3.09 4.67v30.13a8.9 8.9 0 0 0 0.7 4.13 2.47 2.47 0 0 0 2.32 1.29z"/>
 <path class="brand text" d="m461 136.24v-61.87h12.72l5.7 29.64v-29.64h11.95v61.87h-12.12l-6.19-30.93v30.93z"/>
 <circle class="circle" cx="584.16" cy="71" r="66.27"/>
 <circle class="foreground" cx="584.16" cy="38.21" r="10.74"/>
 <path class="foreground" d="m591.27 50.38 24.73-21.38-14 28.09a33 33 0 0 0 0.82 31l16.18 28.52-23.55-20.54a17.18 17.18 0 0 0-22.58 0l-23.53 20.54 16.19-28.5a33 33 0 0 0 0.82-31l-14.04-28.11 24.74 21.36a10.89 10.89 0 0 0 14.22 0.02z"/>
</svg>

<svg xmlns="http://www.w3.org/2000/svg" viewBox="0 0 660.57 142">
  <defs>
    <style>
      .background, .circle {
        fill: #14161A;
      }
      .foreground {
        fill: #FFF;
      }
      .brand {
        fill: #FF3333;
      }
      .circle {
        stroke: #FFF;
        stroke-miterlimit: 10;
        stroke-width: 2px;
      }
    </style>
  </defs>
  <g id="Layer_2" data-name="Layer 2">
    <g id="Layer_1-2" data-name="Layer 1">
      <!--<rect class="background" width="660.57" height="142"/>-->
      <path class="foreground" d="M11.75,67V11.17H4.93v-6H25.35v6.05H19V67Z"/>
      <path class="foreground" d="M31.26,67V5.12h7.28V31.6h9.91V5.12h7.28V67H48.45V37.54H38.54V67Z"/>
      <path class="foreground" d="M65.85,67V5.12H84.34v6.05H73.13V32.34H83.75v6H73.13V61H84.48v6Z"/>
      <path class="foreground" d="M89.09,67,98.48,5.12h8.75L117.46,67h-6.85l-1.76-11.81H97.63L96,67Zm9.35-17.72h9.49l-4.88-32.69h-.11Z"/>
      <path class="foreground" d="M126.88,67V11.17h-6.82v-6h20.43v6.05h-6.36V67Z"/>
      <path class="foreground" d="M146.39,67V5.12h13c3.28,0,5.7.59,7.27,1.75a8.27,8.27,0,0,1,3.08,5.23,44.88,44.88,0,0,1,.72,8.81A28.7,28.7,0,0,1,169.28,30a6.47,6.47,0,0,1-4.5,4.36,4.77,4.77,0,0,1,2.8,1.44,8.31,8.31,0,0,1,1.74,3.62,36.73,36.73,0,0,1,.89,6.59c.18,2.75.27,6.22.27,10.39v1.72q0,1.13,0,2.46c0,.89.05,1.77.09,2.64s.09,1.63.16,2.3A6,6,0,0,0,171,67H163.8a5.31,5.31,0,0,1-.25-1.41c-.07-.72-.13-1.68-.17-2.88s-.09-2.62-.11-4.27,0-3.5,0-5.56V46.15a37.61,37.61,0,0,0-.29-5.36,3.58,3.58,0,0,0-1.41-2.57,7.58,7.58,0,0,0-3.53-.86l-4.33-.24V67Zm7.28-35.23h4.64a5.12,5.12,0,0,0,3.08-.79,4.77,4.77,0,0,0,1.46-3.16,48,48,0,0,0,.38-7.12v-.42a36.64,36.64,0,0,0-.36-6,4,4,0,0,0-1.43-2.73,5.82,5.82,0,0,0-3.2-.7h-4.57Z"/>
      <path class="foreground" d="M179.41,67V5.12H197.9v6.05H186.68V32.34H197.3v6H186.68V61H198v6Z"/>
      <path class="foreground" d="M225.36,67,218.71,5.12h12.1l3.41,39.06L237.7,5.12h11.53l3.3,39.06,3.31-39.06h12.23L261.32,67H246.48l-3.09-29.78L240.44,67Z"/>
      <path class="foreground" d="M286.53,67.56q-7.42,0-11.34-4.48t-3.92-13V20.73q0-7.94,3.88-12t11.38-4.12q7.49,0,11.37,4.12t3.89,12.05V50.12q0,8.48-3.92,13T286.53,67.56Zm.1-11.39c1.88,0,2.82-1.81,2.82-5.45V20.52c0-3-.92-4.57-2.75-4.57q-3.09,0-3.09,4.68V50.79a8.9,8.9,0,0,0,.7,4.13A2.45,2.45,0,0,0,286.63,56.17Z"/>
      <path class="foreground" d="M306.78,67V5.12h19c3.17,0,5.56.73,7.17,2.17a10.8,10.8,0,0,1,3.26,6,44.42,44.42,0,0,1,.82,9.13,21.14,21.14,0,0,1-1.28,8.08,7.44,7.44,0,0,1-4.84,4.19,5.53,5.53,0,0,1,4.1,2.9,13,13,0,0,1,1.18,6V67H324V42.78q0-2.72-1.11-3.36a7.42,7.42,0,0,0-3.57-.65V67Zm12.58-38.95h3c1.71,0,2.57-1.87,2.57-5.59a12.8,12.8,0,0,0-.56-4.75,2.14,2.14,0,0,0-2.11-1.12h-2.89Z"/>
      <path class="foreground" d="M341.09,67V5.12h12.23V29.91l5.77-24.79h12.45l-6.93,28.34L373,67H360.14l-6.75-29.95V67Z"/>
      <path class="foreground" d="M389.78,67.56q-8.47,0-12.22-4.22t-3.74-13.43v-6h12.24V51.6a7.11,7.11,0,0,0,.65,3.36A2.33,2.33,0,0,0,389,56.17a2.6,2.6,0,0,0,2.34-1A6.14,6.14,0,0,0,392,52a17.35,17.35,0,0,0-.56-4.76,10.85,10.85,0,0,0-1.95-3.66,41.87,41.87,0,0,0-3.85-4.06L380,34.2q-6.23-5.87-6.22-13.43,0-7.9,3.67-12.06t10.64-4.15q8.5,0,12.08,4.54t3.56,13.78H391.19V18.62a2.61,2.61,0,0,0-.72-2,3.15,3.15,0,0,0-4.12.12,3.26,3.26,0,0,0-.68,2.13,6.71,6.71,0,0,0,.7,2.81,12.5,12.5,0,0,0,2.78,3.48l7.14,6.85a41.89,41.89,0,0,1,3.93,4.31,18.7,18.7,0,0,1,2.89,5.27A21.82,21.82,0,0,1,404.2,49q0,8.73-3.22,13.66T389.78,67.56Z"/>
      <path class="foreground" d="M408.31,67V5.12h12.3V27.24h5.84V5.12h12.3V67h-12.3V39h-5.84V67Z"/>
      <path class="foreground" d="M459,67.56q-7.41,0-11.33-4.48t-3.92-13V20.73q0-7.94,3.88-12T459,4.56q7.5,0,11.38,4.12t3.88,12.05V50.12q0,8.48-3.92,13T459,67.56Zm.11-11.39c1.87,0,2.81-1.81,2.81-5.45V20.52c0-3-.91-4.57-2.74-4.57q-3.09,0-3.09,4.68V50.79a8.9,8.9,0,0,0,.7,4.13A2.44,2.44,0,0,0,459.11,56.17Z"/>
      <path class="foreground" d="M479.25,67V5.12H495.6a13.16,13.16,0,0,1,8.14,2.29,12.54,12.54,0,0,1,4.31,6.5A34.66,34.66,0,0,1,509.35,24a39.28,39.28,0,0,1-1.09,9.79,11.9,11.9,0,0,1-3.89,6.45c-1.86,1.52-4.5,2.29-7.92,2.29h-5V67Zm12.17-35.61h.7c2.3,0,3.7-.65,4.22-1.94a16,16,0,0,0,.77-5.69,15.41,15.41,0,0,0-.75-5.43q-.76-1.92-3.57-1.92h-1.37Z"/>
      <path class="brand" d="M239.76,136.81A14.46,14.46,0,0,1,229,132.62q-4.09-4.19-4.09-11.7V92.37q0-9,3.57-13.78t11.62-4.78a18.25,18.25,0,0,1,7.82,1.61,12.38,12.38,0,0,1,5.39,4.84,15.19,15.19,0,0,1,2,8.1V99.05h-12.3V89.91a7,7,0,0,0-.7-3.75,2.53,2.53,0,0,0-2.18-1,2.3,2.3,0,0,0-2.32,1.25,7.7,7.7,0,0,0-.6,3.32v31a6.49,6.49,0,0,0,.75,3.62,2.53,2.53,0,0,0,2.17,1.06,2.31,2.31,0,0,0,2.23-1.3,7.65,7.65,0,0,0,.65-3.38V109.6h12.44v11.7q0,8.16-4.11,11.83T239.76,136.81Z"/>
      <path class="brand" d="M274.25,136.81q-7.41,0-11.34-4.49T259,119.37V90q0-8,3.88-12.06t11.37-4.11q7.5,0,11.38,4.11T289.51,90v29.39q0,8.47-3.92,12.95T274.25,136.81Zm.11-11.39q2.81,0,2.81-5.45V89.77q0-4.58-2.74-4.57c-2.06,0-3.1,1.56-3.1,4.67V120a8.88,8.88,0,0,0,.71,4.13A2.46,2.46,0,0,0,274.36,125.42Z"/>
      <path class="brand" d="M308.81,136.81q-7.72,0-11.39-4.35t-3.66-12.77V74.37h12v44.82a25.67,25.67,0,0,0,.17,3,5.23,5.23,0,0,0,.81,2.34,2.3,2.3,0,0,0,2,.92,2.38,2.38,0,0,0,2.08-.9,5,5,0,0,0,.79-2.34,28.77,28.77,0,0,0,.15-3V74.37h12v45.32q0,8.43-3.66,12.77T308.81,136.81Z"/>
      <path class="brand" d="M328.6,136.24V74.37H341V125.7h12.73v10.54Z"/>
      <path class="brand" d="M371.92,136.81q-8.48,0-12.22-4.22T356,119.16v-6h12.23v7.74a7.19,7.19,0,0,0,.65,3.35,2.35,2.35,0,0,0,2.27,1.22,2.6,2.6,0,0,0,2.34-1,6.08,6.08,0,0,0,.65-3.23,17,17,0,0,0-.57-4.77,10.55,10.55,0,0,0-1.95-3.65,39.61,39.61,0,0,0-3.85-4.06l-5.55-5.28Q356,97.58,356,90q0-7.91,3.67-12.05t10.63-4.15q8.52,0,12.08,4.53t3.57,13.78H373.32V87.87a2.64,2.64,0,0,0-.72-2,3.16,3.16,0,0,0-4.11.12,3.21,3.21,0,0,0-.69,2.13,6.66,6.66,0,0,0,.71,2.81,12.43,12.43,0,0,0,2.77,3.48l7.14,6.86a41,41,0,0,1,3.94,4.31,18.93,18.93,0,0,1,2.88,5.27,21.53,21.53,0,0,1,1.09,7.33q0,8.72-3.22,13.66T371.92,136.81Z"/>
      <path class="brand" d="M390.44,136.24V74.37h17q6.68,0,10.05,3.71t3.38,10.84v29q0,8.79-3.08,13.57T407,136.24Zm12.45-10.93H405c2.28,0,3.41-1.1,3.41-3.3V90.08c0-2.06-.27-3.39-.82-4s-1.67-.89-3.36-.89h-1.37Z"/>
      <path class="brand" d="M440.72,136.81q-7.43,0-11.34-4.49t-3.92-12.95V90q0-8,3.88-12.06t11.38-4.11q7.48,0,11.37,4.11T456,90v29.39q0,8.47-3.92,12.95T440.72,136.81Zm.1-11.39q2.82,0,2.82-5.45V89.77q0-4.58-2.75-4.57-3.09,0-3.09,4.67V120a8.9,8.9,0,0,0,.7,4.13A2.47,2.47,0,0,0,440.82,125.42Z"/>
      <path class="brand" d="M461,136.24V74.37h12.72l5.7,29.64V74.37h11.95v61.87H479.25l-6.19-30.93v30.93Z"/>
      <circle class="circle" cx="584.16" cy="71" r="66.27"/>
      <circle class="foreground" cx="584.16" cy="38.21" r="10.74"/>
      <path class="foreground" d="M591.27,50.38,616,29,602,57.09a33,33,0,0,0,.82,31L619,116.61,595.45,96.07a17.18,17.18,0,0,0-22.58,0l-23.53,20.54,16.19-28.5a33,33,0,0,0,.82-31L552.31,29l24.74,21.36A10.89,10.89,0,0,0,591.27,50.38Z"/>
    </g>
  </g>
</svg>
